img/svg/surface_logo_text.svg

<svg viewBox="0 0 972 264" xmlns="http://www.w3.org/2000/svg">
  <g fill="#000" fill-rule="evenodd">
    <g fill-rule="nonzero" stroke-linecap="round" stroke-linejoin="round">
      <path d="M115.5 36.848v190.304L253.03 132 115.5 36.848zM282.112 142.28l-172 119c-8.29 5.736-19.612-.198-19.612-10.28V13c0-10.082 11.321-16.016 19.612-10.28l172 119c7.184 4.97 7.184 15.59 0 20.56z"/>
      <path d="M42.5 107h107a8 8 0 1 0 0-16h-107a8 8 0 1 0 0 16zm0 70h107a8 8 0 1 0 0-16h-107a8 8 0 1 0 0 16zM8 143h168a8 8 0 1 0 0-16H8a8 8 0 1 0 0 16z"/>
    </g>
    <path d="M356.505 184.362c-7.63 0-14.335-.772-20.117-2.316-5.782-1.544-10.202-3.436-13.26-5.676-3.057-2.24-4.586-4.36-4.586-6.357 0-1.575.59-3.512 1.77-5.813 1.182-2.3 2.59-4.283 4.224-5.95 1.635-1.664 2.997-2.496 4.087-2.496.666 0 2.09.575 4.27 1.725 3.268 1.695 6.37 3.057 9.308 4.086 2.937 1.03 6.313 1.544 10.127 1.544 4.238 0 7.826-.832 10.762-2.497 2.936-1.665 4.404-4.587 4.404-8.764 0-2.423-.757-4.512-2.27-6.268-1.514-1.756-3.452-3.24-5.813-4.45-2.36-1.21-5.57-2.634-9.626-4.27l-7.175-3.087c-4.36-2.12-8.1-4.45-11.217-6.993-3.118-2.543-5.66-5.903-7.63-10.08-1.967-4.18-2.95-9.295-2.95-15.35 0-7.386 1.816-13.532 5.45-18.436 3.632-4.904 8.354-8.507 14.167-10.808 5.812-2.3 12.048-3.45 18.71-3.45 5.448 0 10.382.56 14.802 1.68 4.42 1.12 7.887 2.557 10.4 4.313 2.512 1.757 3.768 3.513 3.768 5.27 0 1.452-.47 3.314-1.407 5.584-.94 2.27-2.104 4.254-3.497 5.95-1.393 1.694-2.694 2.542-3.905 2.542-.544 0-1.513-.303-2.905-.908a51.939 51.939 0 0 0-6.767-2.225c-2.27-.575-5.04-.863-8.31-.863-5.63 0-9.536.893-11.715 2.68-2.18 1.785-3.27 3.89-3.27 6.31 0 2.786.742 5.117 2.225 6.994 1.484 1.877 3.36 3.42 5.63 4.632 2.27 1.21 5.435 2.604 9.492 4.178 6.115 2.603 11.11 5.07 14.985 7.402 3.875 2.33 7.22 5.676 10.036 10.035 2.816 4.36 4.224 9.93 4.224 16.712 0 8.295-1.74 15.092-5.222 20.39-3.482 5.297-7.962 9.127-13.442 11.488-5.48 2.362-11.398 3.542-17.755 3.542h-.002zm96.724 0c-9.81 0-18.21-1.544-25.204-4.632-6.993-3.087-12.337-7.553-16.03-13.396-3.693-5.842-5.54-12.88-5.54-21.115V74.832c0-1.756.787-3.073 2.36-3.95 1.576-.88 4.028-1.318 7.358-1.318h5.45c3.33 0 5.766.44 7.31 1.317 1.544.878 2.316 2.195 2.316 3.95v68.752c0 3.754.923 7.114 2.77 10.08 1.847 2.968 4.435 5.284 7.765 6.95 3.33 1.664 7.145 2.496 11.444 2.496 4.297 0 8.127-.832 11.487-2.497 3.36-1.665 5.98-3.98 7.856-6.948 1.877-2.967 2.816-6.327 2.816-10.08V74.832c0-1.756.77-3.073 2.315-3.95 1.544-.88 3.98-1.318 7.31-1.318h5.36c3.33 0 5.766.44 7.31 1.317 1.544.878 2.316 2.195 2.316 3.95v70.387c0 8.233-1.846 15.272-5.54 21.114-3.692 5.843-9.036 10.31-16.03 13.396-6.992 3.088-15.393 4.632-25.2 4.632l.001.002zm78.376-1.09c-6.478 0-9.717-1.695-9.717-5.085V76.377c0-2.24.513-3.86 1.543-4.86 1.03-.998 2.664-1.497 4.904-1.497h31.515c26.76 0 40.142 10.08 40.142 30.243 0 6.115-1.71 11.382-5.13 15.802-3.422 4.42-8.01 7.72-13.76 9.9v.636c1.998.848 4.102 2.665 6.312 5.45s3.98 5.933 5.313 9.445l14.257 35.51c.485 1.454.727 2.483.727 3.09 0 2.118-3.21 3.177-9.627 3.177h-6.63c-5.39 0-8.507-1.12-9.354-3.36l-12.806-31.515c-1.21-2.42-2.377-4.298-3.497-5.63-1.12-1.332-2.68-2.347-4.677-3.043-1.998-.696-4.692-1.044-8.083-1.044h-6.267v39.507c0 3.39-3.24 5.085-9.717 5.085h-5.45l.002-.001zm30.425-66.026c2.18 0 4.24-.62 6.177-1.862 1.938-1.24 3.48-2.92 4.632-5.04 1.15-2.12 1.724-4.45 1.724-6.993 0-3.753-1.226-6.735-3.678-8.945s-5.767-3.315-9.945-3.315h-14.167v26.156h15.258l-.001-.001zm68.116 66.026c-6.478 0-9.717-1.695-9.717-5.085V76.377c0-2.24.513-3.86 1.543-4.86 1.03-.998 2.664-1.497 4.904-1.497h53.947c1.696 0 2.922.635 3.678 1.907.757 1.27 1.136 3.33 1.136 6.176v4.904c0 2.846-.38 4.904-1.136 6.176-.756 1.27-1.982 1.907-3.678 1.907h-35.51v23.613h34.33c1.695 0 2.936.636 3.723 1.907.787 1.272 1.18 3.3 1.18 6.085v4.995c0 2.846-.393 4.92-1.18 6.222-.787 1.3-2.028 1.952-3.723 1.952h-34.33v42.323c0 3.39-3.24 5.085-9.718 5.085h-5.45.001zm70.205 0c-6.6 0-9.9-1.18-9.9-3.542 0-.666.213-1.634.637-2.906l35.6-103.807c.85-2.3 3.907-3.452 9.174-3.452h8.357c5.267 0 8.325 1.15 9.173 3.452l35.6 103.807c.304 1.21.455 2.18.455 2.906 0 1.21-.65 2.104-1.952 2.68-1.302.575-3.346.862-6.13.862h-7.085c-2.543 0-4.586-.257-6.13-.772-1.544-.514-2.498-1.377-2.86-2.588l-6.54-19.708h-38.054l-6.54 19.708c-.665 2.24-3.147 3.36-7.446 3.36h-6.359zm51.496-44.41l-9.173-28.7c-.545-1.453-1.014-3.118-1.408-4.995a182.088 182.088 0 0 1-1.044-5.358h-.635l-.363 1.997c-.606 3.572-1.302 6.357-2.09 8.355l-9.535 28.7h24.25l-.002.001zm97.995 45.5c-18.163 0-31.56-4.722-40.187-14.168-8.628-9.445-12.942-24.127-12.942-44.048 0-38.326 17.983-57.49 53.948-57.49 4.905 0 9.99.486 15.258 1.454 5.268.97 9.672 2.316 13.214 4.042 3.542 1.725 5.313 3.648 5.313 5.767 0 1.513-.605 3.496-1.816 5.948-1.21 2.452-2.65 4.616-4.314 6.493-1.665 1.878-3.133 2.817-4.405 2.817-.303 0-1.12-.303-2.452-.908a67.092 67.092 0 0 0-9.127-3.044c-3.18-.817-7.222-1.226-12.126-1.226-9.506 0-16.544 3.012-21.116 9.037-4.57 6.024-6.857 15.12-6.857 27.29s2.302 21.344 6.904 27.52c4.6 6.175 11.504 9.263 20.707 9.263 4.784 0 8.947-.484 12.49-1.453 3.54-.97 7.007-2.21 10.398-3.723.18-.06.726-.288 1.634-.682.91-.393 1.575-.59 1.998-.59 1.575 0 3.088.923 4.54 2.77 1.454 1.847 2.635 3.936 3.543 6.267.91 2.33 1.363 4.01 1.363 5.04 0 2.966-1.983 5.48-5.95 7.537-3.965 2.06-8.748 3.588-14.35 4.587-5.6 1-10.82 1.498-15.665 1.498l-.003.002zM907.06 183c-2.24 0-3.875-.515-4.905-1.544-1.03-1.03-1.544-2.664-1.544-4.904V76.377c0-2.24.514-3.86 1.543-4.86 1.03-.998 2.664-1.497 4.905-1.497h59.124c1.695 0 2.92.635 3.678 1.907.757 1.27 1.135 3.33 1.135 6.176v4.904c0 2.846-.378 4.904-1.135 6.176-.757 1.27-1.983 1.907-3.678 1.907h-40.688v23.43h36.328c1.696 0 2.922.637 3.678 1.91.757 1.27 1.136 3.33 1.136 6.174v4.996c0 2.845-.38 4.904-1.136 6.175-.756 1.272-1.982 1.908-3.678 1.908h-36.328v26.156h40.778c1.696 0 2.922.635 3.68 1.906.756 1.272 1.134 3.3 1.134 6.085v5.087c0 2.846-.378 4.904-1.135 6.176-.756 1.27-1.982 1.907-3.678 1.907H907.06z" fill-rule="nonzero"/>
  </g>
</svg>

<svg width="972" height="264" viewBox="0 0 972 264" fill="none" xmlns="http://www.w3.org/2000/svg">
<g clip-path="url(#clip0)">
<path d="M115.5 36.848V227.152L253.03 132L115.5 36.848ZM282.112 142.28L110.112 261.28C101.822 267.016 90.5 261.082 90.5 251V13C90.5 2.91801 101.821 -3.01599 110.112 2.72001L282.112 121.72C289.296 126.69 289.296 137.31 282.112 142.28Z" fill="white"/>
<path d="M42.5 107H149.5C151.622 107 153.657 106.157 155.157 104.657C156.657 103.157 157.5 101.122 157.5 99C157.5 96.8783 156.657 94.8434 155.157 93.3432C153.657 91.8429 151.622 91 149.5 91H42.5C40.3783 91 38.3434 91.8429 36.8431 93.3432C35.3429 94.8434 34.5 96.8783 34.5 99C34.5 101.122 35.3429 103.157 36.8431 104.657C38.3434 106.157 40.3783 107 42.5 107ZM42.5 177H149.5C151.622 177 153.657 176.157 155.157 174.657C156.657 173.157 157.5 171.122 157.5 169C157.5 166.878 156.657 164.843 155.157 163.343C153.657 161.843 151.622 161 149.5 161H42.5C40.3783 161 38.3434 161.843 36.8431 163.343C35.3429 164.843 34.5 166.878 34.5 169C34.5 171.122 35.3429 173.157 36.8431 174.657C38.3434 176.157 40.3783 177 42.5 177ZM8 143H176C178.122 143 180.157 142.157 181.657 140.657C183.157 139.157 184 137.122 184 135C184 132.878 183.157 130.843 181.657 129.343C180.157 127.843 178.122 127 176 127H8C5.87827 127 3.84344 127.843 2.34315 129.343C0.842855 130.843 0 132.878 0 135C0 137.122 0.842855 139.157 2.34315 140.657C3.84344 142.157 5.87827 143 8 143V143Z" fill="white"/>
<path d="M356.505 184.362C348.875 184.362 342.17 183.59 336.388 182.046C330.606 180.502 326.186 178.61 323.128 176.37C320.071 174.13 318.542 172.01 318.542 170.013C318.542 168.438 319.132 166.501 320.312 164.2C321.494 161.9 322.902 159.917 324.536 158.25C326.171 156.586 327.533 155.754 328.623 155.754C329.289 155.754 330.713 156.329 332.893 157.479C336.161 159.174 339.263 160.536 342.201 161.565C345.138 162.595 348.514 163.109 352.328 163.109C356.566 163.109 360.154 162.277 363.09 160.612C366.026 158.947 367.494 156.025 367.494 151.848C367.494 149.425 366.737 147.336 365.224 145.58C363.71 143.824 361.772 142.34 359.411 141.13C357.051 139.92 353.841 138.496 349.785 136.86L342.61 133.773C338.25 131.653 334.51 129.323 331.393 126.78C328.275 124.237 325.733 120.877 323.763 116.7C321.796 112.52 320.813 107.405 320.813 101.35C320.813 93.964 322.629 87.818 326.263 82.914C329.895 78.01 334.617 74.407 340.43 72.106C346.242 69.806 352.478 68.656 359.14 68.656C364.588 68.656 369.522 69.216 373.942 70.336C378.362 71.456 381.829 72.893 384.342 74.649C386.854 76.406 388.11 78.162 388.11 79.919C388.11 81.371 387.64 83.233 386.703 85.503C385.763 87.773 384.599 89.757 383.206 91.453C381.813 93.147 380.512 93.995 379.301 93.995C378.757 93.995 377.788 93.692 376.396 93.087C374.194 92.1913 371.933 91.4479 369.629 90.862C367.359 90.287 364.589 89.999 361.319 89.999C355.689 89.999 351.783 90.892 349.604 92.679C347.424 94.464 346.334 96.569 346.334 98.989C346.334 101.775 347.076 104.106 348.559 105.983C350.043 107.86 351.919 109.403 354.189 110.615C356.459 111.825 359.624 113.219 363.681 114.793C369.796 117.396 374.791 119.863 378.666 122.195C382.541 124.525 385.886 127.871 388.702 132.23C391.518 136.59 392.926 142.16 392.926 148.942C392.926 157.237 391.186 164.034 387.704 169.332C384.222 174.629 379.742 178.459 374.262 180.82C368.782 183.182 362.864 184.362 356.507 184.362H356.505V184.362ZM453.229 184.362C443.419 184.362 435.019 182.818 428.025 179.73C421.032 176.643 415.688 172.177 411.995 166.334C408.302 160.492 406.455 153.454 406.455 145.219V74.832C406.455 73.076 407.242 71.759 408.815 70.882C410.391 70.002 412.843 69.564 416.173 69.564H421.623C424.953 69.564 427.389 70.004 428.933 70.881C430.477 71.759 431.249 73.076 431.249 74.831V143.583C431.249 147.337 432.172 150.697 434.019 153.663C435.866 156.631 438.454 158.947 441.784 160.613C445.114 162.277 448.929 163.109 453.228 163.109C457.525 163.109 461.355 162.277 464.715 160.612C468.075 158.947 470.695 156.632 472.571 153.664C474.448 150.697 475.387 147.337 475.387 143.584V74.832C475.387 73.076 476.157 71.759 477.702 70.882C479.246 70.002 481.682 69.564 485.012 69.564H490.372C493.702 69.564 496.138 70.004 497.682 70.881C499.226 71.759 499.998 73.076 499.998 74.831V145.218C499.998 153.451 498.152 160.49 494.458 166.332C490.766 172.175 485.422 176.642 478.428 179.728C471.436 182.816 463.035 184.36 453.228 184.36L453.229 184.362V184.362ZM531.605 183.272C525.127 183.272 521.888 181.577 521.888 178.187V76.377C521.888 74.137 522.401 72.517 523.431 71.517C524.461 70.519 526.095 70.02 528.335 70.02H559.85C586.61 70.02 599.992 80.1 599.992 100.263C599.992 106.378 598.282 111.645 594.862 116.065C591.44 120.485 586.852 123.785 581.102 125.965V126.601C583.1 127.449 585.204 129.266 587.414 132.051C589.624 134.836 591.394 137.984 592.727 141.496L606.984 177.006C607.469 178.46 607.711 179.489 607.711 180.096C607.711 182.214 604.501 183.273 598.084 183.273H591.454C586.064 183.273 582.947 182.153 582.1 179.913L569.294 148.398C568.084 145.978 566.917 144.1 565.797 142.768C564.677 141.436 563.117 140.421 561.12 139.725C559.122 139.029 556.428 138.681 553.037 138.681H546.77V178.188C546.77 181.578 543.53 183.273 537.053 183.273H531.603L531.605 183.272V183.272ZM562.03 117.246C564.21 117.246 566.27 116.626 568.207 115.384C570.145 114.144 571.687 112.464 572.839 110.344C573.989 108.224 574.563 105.894 574.563 103.351C574.563 99.598 573.337 96.616 570.885 94.406C568.433 92.196 565.118 91.091 560.94 91.091H546.773V117.247H562.031L562.03 117.246V117.246ZM630.146 183.272C623.668 183.272 620.429 181.577 620.429 178.187V76.377C620.429 74.137 620.942 72.517 621.972 71.517C623.002 70.519 624.636 70.02 626.876 70.02H680.823C682.519 70.02 683.745 70.655 684.501 71.927C685.258 73.197 685.637 75.257 685.637 78.103V83.007C685.637 85.853 685.257 87.911 684.501 89.183C683.745 90.453 682.519 91.09 680.823 91.09H645.313V114.703H679.643C681.338 114.703 682.579 115.339 683.366 116.61C684.153 117.882 684.546 119.91 684.546 122.695V127.69C684.546 130.536 684.153 132.61 683.366 133.912C682.579 135.212 681.338 135.864 679.643 135.864H645.313V178.187C645.313 181.577 642.073 183.272 635.595 183.272H630.145H630.146ZM700.351 183.272C693.751 183.272 690.451 182.092 690.451 179.73C690.451 179.064 690.664 178.096 691.088 176.824L726.688 73.017C727.538 70.717 730.595 69.565 735.862 69.565H744.219C749.486 69.565 752.544 70.715 753.392 73.017L788.992 176.824C789.296 178.034 789.447 179.004 789.447 179.73C789.447 180.94 788.797 181.834 787.495 182.41C786.193 182.985 784.149 183.272 781.365 183.272H774.28C771.737 183.272 769.694 183.015 768.15 182.5C766.606 181.986 765.652 181.123 765.29 179.912L758.75 160.204H720.696L714.156 179.912C713.491 182.152 711.009 183.272 706.71 183.272H700.351V183.272ZM751.847 138.862L742.674 110.162C742.129 108.709 741.66 107.044 741.266 105.167C740.891 103.386 740.543 101.6 740.222 99.809H739.587L739.224 101.806C738.618 105.378 737.922 108.163 737.134 110.161L727.599 138.861H751.849L751.847 138.862ZM849.842 184.362C831.679 184.362 818.282 179.64 809.655 170.194C801.027 160.749 796.713 146.067 796.713 126.146C796.713 87.82 814.696 68.656 850.661 68.656C855.566 68.656 860.651 69.142 865.919 70.11C871.187 71.08 875.591 72.426 879.133 74.152C882.675 75.877 884.446 77.8 884.446 79.919C884.446 81.432 883.841 83.415 882.63 85.867C881.42 88.319 879.98 90.483 878.316 92.36C876.651 94.238 875.183 95.177 873.911 95.177C873.608 95.177 872.791 94.874 871.459 94.269C868.493 93.0372 865.443 92.0199 862.332 91.225C859.152 90.408 855.11 89.999 850.206 89.999C840.7 89.999 833.662 93.011 829.09 99.036C824.52 105.06 822.233 114.156 822.233 126.326C822.233 138.496 824.535 147.67 829.137 153.846C833.737 160.021 840.641 163.109 849.844 163.109C854.628 163.109 858.791 162.625 862.334 161.656C865.874 160.686 869.341 159.446 872.732 157.933C872.912 157.873 873.458 157.645 874.366 157.251C875.276 156.858 875.941 156.661 876.364 156.661C877.939 156.661 879.452 157.584 880.904 159.431C882.358 161.278 883.539 163.367 884.447 165.698C885.357 168.028 885.81 169.708 885.81 170.738C885.81 173.704 883.827 176.218 879.86 178.275C875.895 180.335 871.112 181.863 865.51 182.862C859.91 183.862 854.69 184.36 849.845 184.36L849.842 184.362V184.362ZM907.06 183C904.82 183 903.185 182.485 902.155 181.456C901.125 180.426 900.611 178.792 900.611 176.552V76.377C900.611 74.137 901.125 72.517 902.154 71.517C903.184 70.519 904.818 70.02 907.059 70.02H966.183C967.878 70.02 969.103 70.655 969.861 71.927C970.618 73.197 970.996 75.257 970.996 78.103V83.007C970.996 85.853 970.618 87.911 969.861 89.183C969.104 90.453 967.878 91.09 966.183 91.09H925.495V114.52H961.823C963.519 114.52 964.745 115.157 965.501 116.43C966.258 117.7 966.637 119.76 966.637 122.604V127.6C966.637 130.445 966.257 132.504 965.501 133.775C964.745 135.047 963.519 135.683 961.823 135.683H925.495V161.839H966.273C967.969 161.839 969.195 162.474 969.953 163.745C970.709 165.017 971.087 167.045 971.087 169.83V174.917C971.087 177.763 970.709 179.821 969.952 181.093C969.196 182.363 967.97 183 966.274 183H907.06V183Z" fill="white"/>
</g>
<defs>
<clipPath id="clip0">
<rect width="972" height="264" fill="white"/>
</clipPath>
</defs>
</svg>
